X:3
T:3. Seidas Fuata
K:Eb
M:3/4
L:1/8
B,D |: \
M:4/4
L:1/4
E2 G>A | \
M:3/4
L:1/8
(G2 F2) F2 | E2 EDEF | \
M:4/4
L:1/4
G2 B>c | \
M:3/4
L:1/8
(B2 A2) A2 |1 G2 z2 B,D :|2
G2 z2 BA |: G2 B2 G2 | A2 (cB) (AG) | F2 A2 F2 | G2 (BA) (GF) | \
M:4/4
L:1/4
E2 G>A |
M:3/4
L:1/8
(G2 F2) F2 | E2 EDEF | \
M:4/4
L:1/4
G2 B>c |1 \
M:3/4
L:1/8
(B2 A2) A2 | G2 z2 BA :|2 \
M:3/4
L:1/8
(B2 c2) d2 | e2 z2 EG ||
% End part A, Seidas Fuata
K:Ab
M:4/4
L:1/4
|: A2 c>d | \
M:3/4
L:1/8
(c2 B2) B2 | A2 (AG)AB | \
M:4/4
L:1/4
c2 e>f | \
M:3/4
L:1/8
(e2 d2) d2 |1 c2 z2 EG :|2
c2 z2 ed |: c2 e2 c2 | d2 fe dc | B2 d2 B2 | c2 (ed) cB | \
M:4/4
L:1/4
A2 c>d |
M:3/4
L:1/8
(c2 B2) B2 | A2 (AG)AB | \
M:4/4
L:1/4
c2 e>f |1 \
M:3/4
L:1/8
(e2 d2) d2 | c2 z2 ed :|2 (e2 d2) d2 | c2 z2 z2 |]

